X:21
T:Tom Jones. VWMLa.021
%%VWML:Anon2-3049-p14-0
F:http://www.vwml.org/record/Anon2/3049/p14
S:Anon. MS, late 18thC, Vaughan Williams Mem. Library
O:England;Yorkshire
Z:vmp/efdss.Simon Wilson. Reviewed PJH 2008.
M:6/8
L:1/8
Q:3/8=120
K:D
a3 g3|fdf ece|d2f ece|d2f ece|\
dcd ede|fef ^gfg|afd c2B|A3- A3:|
|:D2F E2G|F2A EFG|F2d AB=c|{c}B3- B2F|\
GFG AGA|BAB cBc|dBG F2E|D3- D3:|
T:Patties Whim. VWMLa.022
R:Jig
S:Anon. MS, late 18thC, Vaughan Williams Mem. Library
O:England;Yorkshire
Z:vmp/efdss.Simon Wilson. Reviewed PJH 2008.
M:6/8
L:1/8
Q:3/8=120
K:A
f|ecA ABc|d2c B2A|ecA ABA|B2c d2f|\
ecA ABc|d2c B2A|(c/d/e).c (B/c/d).B|A2A A2:|
|:e|fdf ece|fdf ece|fga ecA|B2cd2f|\
efa agf|edc B2A|(c/d/e).c (B/c/d).B|A2A A2:|
